X: 216
T: Happy Valley (jig)
C: BB 1/06
N: 082053
L: 1/8
M: 6/8
R: jig
Q: 1/4 = 170
K: D
"A" A,2E-E3 | "Bm" B,2F-F3 |"G" GFG Bcd | "D" ABA AFD |
"A" A,2E-E3 | "Bm" B,2F-F3 |"G" GFG BAG | "A" ECE "D" D3 :|
"A" Ace Ace | "Bm" Bff fef |"G" gdB BGB | "D" ABA FED |
"A" Ace Ace | "Bm" Bff fef |"G" gfg Bcd | "A" edc "D" d3 :|
%%%%%%%%%%%%%%%%%%%%%%
